X: 22862
T: Lark In The Morning, The
R: jig
M: 6/8
K: Dmajor
JA3 {c}AFA|{c}AGB {c}B!>!eB|{c}B~A3 FA|fJge {a}fdB|
~A3 {c}AFA|{c}AGB {c}BAB|dza Jafe|{a}fdB {c}BdB|
~A3{c}A d=c|~B2BB {c}BdB|~A3 {c'}af/a/Jg-|g2 {a}fdB|
~A3 {c}AFA|{c}AGB {c}BAB|dzg Jafe|{a}fdB {c}BAB|
def Ja3|{c'}b~a3 fe|dza {c'}afe|{a}fdB {c}BAB|
def {c'}a3|{c'}b~a3 fd|Ja(3Jage {a}fed|{a}edB {c}BAB|
def Ja3|{c'}b~a3 fe|fz a {c'}afe|{a}edB {c}BAB|
def az2|{c'}b~a3 fd|Jg3 {a}fed|{a}edB {c}BAB||
ef2 {a}f/e/f2-|f{e}f3{e}f2|{e}f2{e}f2{e}fe/f/|edB {c}BAB|
dzf {a}fdf|{a}fdf {a}fdf|g//a//g//a//ge {a}fed|{a}edB {c}BAB|
d2f {a}fdf|{a}fdf {a}fef|(3ded d fed|{a}edB {c}BAB|
zJf2 {a}fef|{a}fed Jg2e|{a}fed {a}edB {c}BAG||
A{B}Ad {a}fdd|{a}edd {a}fdd|Add fdd|{a}edB {c}BAG|
Ja3 {a}fdd|{a}ede {a}fdB|(3fbg e {a}fed|{a}edB {c}BAF|
aze {a}fdd|{a}ede {a}edB|A3 fdd|{a}edB {c}BAF|
A{B}Ad {a}fdd|{a}ede {a}fdJb|Jg3 fed|{a}edB {c}BAG|
A{B}A3-A2-|A6|

